!!!!SEGMENT: pl-wtm--r-1544--006_stefani-jozef--msza-no-9-sanctus.krn
!!!cenid: 18xx:1798
!!!COM: Stefani, Józef
!!!COM-rismID: pe30024097
!!!CDT: 1800/04/16-1876/03/19
!!!CNT: Polish
!!!OPR: Msza No 9
!!!OTL: Sanctus
!!!OMV: 006
!!!PDT: 1846
!!!AGN: Sacred; Mass
!!!SMS-siglum: PL-Wtm
!!!SMS-shelfmark: R 1544
!!!SMS-shelfwork: 001-006 M
!!!SMS-variant:
!!!SMS-altvar:
!!!NIFC-rismSourceID: 1001120493
!!!NIFC-islandoraID: pl-wtm:26509
!!!URL-pdf-islandora: https://repozytorium.nifc.pl/islandora/object/pl-wtm%3A26509/datastream/PDF/view
!!!URL-scan: https://polish.musicsources.pl/pl/lokalizacje/galeria/rekopisy/6345 @EN{Scan on Polish Music Sources Website} @PL{Skany w portalu Dziedzictwo Muzyki Polskiej w otwartym dostępie}
!!!ONB-nifc: UWAGA: części Mszy: 1. Kyrie, 2. Gloria, 3. Graduale, 4. Credo, 5. Offertorium, 6. Sanctus, 7. Benedictus, 8. Agnus Dei, 9. Dona nobis
!!!AIN: 1 clars 1 cor 2 empty 1 fagot 1 flt 1 oboe 2 soprn 1 tenor 1 timpa 1 tromp 1 viola 2 violn
!!!key:
**kern	**dynam	**kern	**dynam	**kern	**text	**dynam	**kern	**dynam	**kern	**text	**dynam	**kern	**text	**dynam	**kern	**dynam	**kern	**dynam	**kern	**dynam	**kern	**dynam	**kern	**dynam	**kern	**dynam	**kern	**dynam	**kern	**dynam	**kern	**dynam
*part15	*part15	*part14	*part14	*part13	*part13	*part13	*part12	*part12	*part11	*part11	*part11	*part10	*part10	*part10	*part9	*part9	*part8	*part8	*part7	*part7	*part6	*part6	*part5	*part5	*part4	*part4	*part3	*part3	*part2	*part2	*part1	*part1
*staff15	*	*staff14	*	*staff13	*staff13	*	*staff12	*	*staff11	*staff11	*	*staff10	*staff10	*	*staff9	*	*staff8	*	*staff7	*	*staff6	*	*staff5	*	*staff4	*	*staff3	*	*staff2	*	*staff1	*
*Itimpa	*	*Iempty	*	*Iempty	*	*	*Itenor	*	*Isoprn	*	*	*Isoprn	*	*	*Iviola	*	*Ivioln	*	*Ivioln	*	*Itromp	*	*Ifagot	*	*Icor	*	*Iclars	*	*Ioboe	*	*Iflt	*
*I"Tympani	*	*I"Baſsi	*	*I"Baſso	*	*	*I"Tenore	*	*I"Soprano 2o.	*	*	*I"Soprano 1o	*	*	*I"Viole	*	*I"Violini	*	*I"Violini	*	*I"Trombe in C	*	*I"Fagotti	*	*I"Corni in C	*	*I"Clarinetti in C	*	*I"Oboe	*	*I"Flauto	*
*I'timp	*	*I'b	*	*I'B	*	*	*I'T	*	*I'S 2	*	*	*I'S 1	*	*	*I'vla	*	*I'vl 2	*	*I'vl 1	*	*I'tr in C	*	*I'fag	*	*I'cor in C	*	*I'cl in C	*	*I'ob	*	*I'fl	*
*clefF1	*	*clefF4	*	*clefF4	*	*	*clefC4	*	*clefG2	*	*	*clefG2	*	*	*clefC3	*	*clefG2	*	*clefG2	*	*clefG2	*	*clefF4	*	*clefG2	*	*clefG2	*	*clefG2	*	*clefG2	*
*	*	*	*	*	*	*	*	*	*	*	*	*	*	*	*	*	*	*	*	*	*	*	*	*	*Trd0c0	*	*	*	*	*	*	*
*k[]	*	*k[]	*	*k[]	*	*	*k[]	*	*k[]	*	*	*k[]	*	*	*k[]	*	*k[]	*	*k[]	*	*k[]	*	*k[]	*	*k[]	*	*k[]	*	*k[]	*	*k[]	*
*C:	*	*C:	*	*C:	*	*	*C:	*	*C:	*	*	*C:	*	*	*C:	*	*C:	*	*C:	*	*C:	*	*C:	*	*C:	*	*C:	*	*C:	*	*C:	*
*M4/4	*	*M4/4	*	*M4/4	*	*	*M4/4	*	*M4/4	*	*	*M4/4	*	*	*M4/4	*	*M4/4	*	*M4/4	*	*M4/4	*	*M4/4	*	*M4/4	*	*M4/4	*	*M4/4	*	*M4/4	*
*met(c)	*	*met(c)	*	*met(c)	*	*	*met(c)	*	*met(c)	*	*	*met(c)	*	*	*met(c)	*	*met(c)	*	*met(c)	*	*met(c)	*	*met(c)	*	*met(c)	*	*met(c)	*	*met(c)	*	*met(c)	*
*stria1	*	*	*	*	*	*	*	*	*	*	*	*	*	*	*	*	*	*	*	*	*	*	*	*	*	*	*	*	*	*	*	*
*>[A,A1,A,A1,A,A1,A,A2,B]	*	*	*	*	*	*	*	*	*	*	*	*	*	*	*	*	*	*	*	*	*	*	*	*	*	*	*	*	*	*	*	*
*>A	*	*	*	*	*	*	*	*	*	*	*	*	*	*	*	*	*	*	*	*	*	*	*	*	*	*	*	*	*	*	*	*
*	*	*	*	*	*	*	*	*	*	*	*	*	*	*	*	*	*	*	*	*	*	*	*	*	*^	*	*^	*	*	*	*	*
*tremolo	*	*	*	*	*	*	*	*	*	*	*	*	*	*	*	*	*	*	*	*	*	*	*	*	*	*	*	*	*	*	*	*	*	*
!LO:SIC:s=32C/LLL	!	!	!	!	!	!	!	!	!	!	!	!	!	!	!	!	!	!	!	!	!	!	!	!	!	!	!	!	!	!	!	!	!LO:TX:a:t=Adagio	!
32Re/LLL	.	(>4AA-X/	.	4r	.	.	4r	.	4r	.	.	4r	.	.	4A-X/	.	4d/ 4c/	.	4f#X/	.	4f#X/ 4c/	.	4A-X\ 4AA-X\	.	4dd/	4cc\	.	4dd/	4cc\	.	4ff#X\	.	4ff#X^\	.
!LO:SIC:s=32C/	!	!	!	!	!	!	!	!	!	!	!	!	!	!	!	!	!	!	!	!	!	!	!	!	!	!	!	!	!	!	!	!	!	!
32Re/	.	.	.	.	.	.	.	.	.	.	.	.	.	.	.	.	.	.	.	.	.	.	.	.	.	.	.	.	.	.	.	.	.	.
!LO:SIC:s=32C/	!	!	!	!	!	!	!	!	!	!	!	!	!	!	!	!	!	!	!	!	!	!	!	!	!	!	!	!	!	!	!	!	!	!
32Re/	.	.	.	.	.	.	.	.	.	.	.	.	.	.	.	.	.	.	.	.	.	.	.	.	.	.	.	.	.	.	.	.	.	.
!LO:SIC:s=32C/	!	!	!	!	!	!	!	!	!	!	!	!	!	!	!	!	!	!	!	!	!	!	!	!	!	!	!	!	!	!	!	!	!	!
32Re/	.	.	.	.	.	.	.	.	.	.	.	.	.	.	.	.	.	.	.	.	.	.	.	.	.	.	.	.	.	.	.	.	.	.
!LO:SIC:s=32C/	!	!	!	!	!	!	!	!	!	!	!	!	!	!	!	!	!	!	!	!	!	!	!	!	!	!	!	!	!	!	!	!	!	!
32Re/	.	.	.	.	.	.	.	.	.	.	.	.	.	.	.	.	.	.	.	.	.	.	.	.	.	.	.	.	.	.	.	.	.	.
!LO:SIC:s=32C/	!	!	!	!	!	!	!	!	!	!	!	!	!	!	!	!	!	!	!	!	!	!	!	!	!	!	!	!	!	!	!	!	!	!
32Re/	.	.	.	.	.	.	.	.	.	.	.	.	.	.	.	.	.	.	.	.	.	.	.	.	.	.	.	.	.	.	.	.	.	.
!LO:SIC:s=32C/	!	!	!	!	!	!	!	!	!	!	!	!	!	!	!	!	!	!	!	!	!	!	!	!	!	!	!	!	!	!	!	!	!	!
32Re/	.	.	.	.	.	.	.	.	.	.	.	.	.	.	.	.	.	.	.	.	.	.	.	.	.	.	.	.	.	.	.	.	.	.
!LO:SIC:s=32C/JJJ	!	!	!	!	!	!	!	!	!	!	!	!	!	!	!	!	!	!	!	!	!	!	!	!	!	!	!	!	!	!	!	!	!	!
32Re/JJJ	.	.	.	.	.	.	.	.	.	.	.	.	.	.	.	.	.	.	.	.	.	.	.	.	.	.	.	.	.	.	.	.	.	.
=1	=1	=1	=1	=1	=1	=1	=1	=1	=1	=1	=1	=1	=1	=1	=1	=1	=1	=1	=1	=1	=1	=1	=1	=1	=1	=1	=1	=1	=1	=1	=1	=1	=1	=1
*	*	*	*	*	*	*	*	*	*	*	*	*	*	*	*	*	*	*	*	*	*^	*	*	*	*	*	*	*	*	*	*	*	*	*
!LO:SIC:s=4GG\	!	!	!	!	!	!	!	!	!	!	!	!	!	!	!	!	!	!	!	!	!	!	!	!	!	!	!	!	!	!	!	!	!	!	!
4Re\	.	4GG/)	.	2r	.	.	2r	.	2r	.	.	2r	.	.	4G/	.	4d/ 4B/	.	4g/	.	4g/ 4B/	4ryy	.	4G\ 4GG\	.	4dd/ 4g/	4ryy	.	4dd/	4b\	.	4gg\	.	4gg\	.
4r	.	4r	.	.	.	.	.	.	.	.	.	.	.	.	4r	.	4r	.	4r	.	8.g/L	8.g\L	.	4r	.	8.g/L	8.g\L	.	4r	4ryy	.	4r	.	4r	.
.	.	.	.	.	.	.	.	.	.	.	.	.	.	.	.	.	.	.	.	.	16g/Jk	16g\Jk	.	.	.	16g/Jk	16g\Jk	.	.	.	.	.	.	.	.
4r	.	4r	.	4r	.	.	4r	.	4r	.	.	4r	.	.	4r	.	4r	.	4r	.	4g/	4g\	.	4r	.	4g/	4g\	.	4r	4ryy	.	4r	.	4r	.
!LO:SIC:s=4C/	!	!	!LO:DY:b	!	!	!	!	!	!	!	!	!	!	!LO:DY:a	!	!	!	!	!	!	!	!	!	!	!	!	!	!	!	!	!	!	!	!	!
.	.	.	f	.	.	.	.	.	.	.	.	.	.	f	.	.	.	.	.	.	.	.	.	.	.	.	.	.	.	.	.	.	.	.	f
4Re/	.	4C/	.	4C/	U-	.	4c\	.	4e/	.	.	4g/	U-	.	4c\	.	4e/	.	4g/	.	4g/ 4c/	4ryy	.	4G\ 4C\	.	4g/ 4c/	4ryy	.	4cc/ 4e/	4ryy	.	4ee\	.	4gg\	.
*	*	*	*	*	*	*	*	*	*	*	*	*	*	*	*	*	*	*	*	*	*	*	*	*	*	*v	*v	*	*	*	*	*	*	*	*
=2	=2	=2	=2	=2	=2	=2	=2	=2	=2	=2	=2	=2	=2	=2	=2	=2	=2	=2	=2	=2	=2	=2	=2	=2	=2	=2	=2	=2	=2	=2	=2	=2	=2	=2
*	*	*	*	*	*	*	*	*	*	*	*	*	*	*	*2\right	*	*	*	*	*	*	*2\right	*	*	*	*	*	*	*	*	*	*	*	*
!LO:SIC:s=4C/	!	!	!	!	!	!	!	!	!	!	!	!	!	!	!	!	!	!	!	!	!	!	!	!	!	!	!	!	!	!	!	!	!	!
4Re/	.	4.F\|	.	4.F\	-pad-	.	4.c\	.	4.f/	.	.	4.a\	-pad-	.	2c\	.	4.f/	.	4.a/	.	4.a/	2c\	.	4.A\ 4.F\	.	2cc/ 2c/	.	4.a/ 4.f/	4ryy	.	4.ff\	.	4.aa\	.
!LO:SIC:s=8C/	!	!	!	!	!	!	!	!	!	!	!	!	!	!	!	!	!	!	!	!	!	!	!	!	!	!	!	!	!	!	!	!	!	!
8Re/	.	.	.	.	.	.	.	.	.	.	.	.	.	.	.	.	.	.	.	.	.	.	.	.	.	.	.	.	4ryy	.	.	.	.	.
8r	.	8E\|	.	8E\	-nij	.	8c\	.	8g/	.	.	8cc\	-nij	.	.	.	8g/	.	8cc\	.	8cc/	.	.	8G\ 8E\	.	.	.	8cc/ 8g/	.	.	8gg\	.	8ccc\	.
4r	.	4D\|	.	4D\	na	.	4d\	.	4f/	.	.	4ff\	na	.	4d\	.	4a/ 4f/	.	4ff\	.	4a/	4r	.	4F\ 4D\	.	4r	.	4ff/	4f\	.	4aa\	.	4fff\	.
!LO:SIC:s=4GG\	!	!	!	!	!	!	!	!	!	!	!	!	!	!	!	!	!	!	!	!	!	!	!	!	!	!	!	!	!	!	!	!	!	!
4Re\	.	4G\|	.	4G\	ko-	.	4d\	.	4f/	.	.	4b\	ko-	.	4d\ 4G\	.	4f/ 4d/	.	4b\	.	4g/	4g\	.	4G\ 4GG\	.	4dd/ 4g/	.	4b/	4f\	.	4ff\	.	4bb\	.
=3	=3	=3	=3	=3	=3	=3	=3	=3	=3	=3	=3	=3	=3	=3	=3	=3	=3	=3	=3	=3	=3	=3	=3	=3	=3	=3	=3	=3	=3	=3	=3	=3	=3	=3
*	*	*	*	*	*	*	*	*	*	*	*	*	*	*	*	*	*^	*	*	*	*	*	*	*^	*	*^	*	*	*	*	*	*	*	*
*2\right	*	*	*	*	*	*below	*2\right	*	*	*	*	*2\right	*	*	*	*	*	*2\right	*	*2\right	*	*	*	*	*	*	*	*	*	*	*	*	*	*	*	*2\right	*
!	!	!	!	!	!	!	!	!	!	!	!	!	!	!LO:DY:a	!	!	!	!	!	!	!	!	!	!	!	!	!	!	!	!	!	!	!	!	!	!	!
!LO:SIC:s=32C/LLL	!	!	!	!	!	!	!	!	!	!	!	!	!	!	!	!	!	!	!	!	!	!	!	!	!	!	!	!	!	!	!	!	!	!	!	!	!
32Re/LLL	.	(4A\	<	(4A\	-la-	<	2c\	.	(4e/	.	.	2cc\	-la-	<	4A/	.	4e/	2c\	.	2cc\	.	8cc/L 8c/	4ryy	.	4A\ 4AA\	4ryy	.	2cc/	2cc\	.	2cc/	4e\	<	4ee\	.	2ccc\	<
!LO:SIC:s=32C/	!	!	!	!	!	!	!	!	!	!	!	!	!	!	!	!	!	!	!	!	!	!	!	!	!	!	!	!	!	!	!	!	!	!	!	!	!
32Re/	.	.	.	.	.	.	.	.	.	.	.	.	.	.	.	.	.	.	.	.	.	.	.	.	.	.	.	.	.	.	.	.	.	.	.	.	.
!LO:SIC:s=32C/	!	!	!	!	!	!	!	!	!	!	!	!	!	!	!	!	!	!	!	!	!	!	!	!	!	!	!	!	!	!	!	!	!	!	!	!	!
32Re/	.	.	.	.	.	.	.	.	.	.	.	.	.	.	.	.	.	.	.	.	.	.	.	.	.	.	.	.	.	.	.	.	.	.	.	.	.
!LO:SIC:s=32C/	!	!	!	!	!	!	!	!	!	!	!	!	!	!	!	!	!	!	!	!	!	!	!	!	!	!	!	!	!	!	!	!	!	!	!	!	!
32Re/	.	.	.	.	.	.	.	.	.	.	.	.	.	.	.	.	.	.	.	.	.	.	.	.	.	.	.	.	.	.	.	.	.	.	.	.	.
!LO:SIC:s=32C/	!	!	!	!	!	!	!	!	!	!	!	!	!	!	!	!	!	!	!	!	!	!	!	!	!	!	!	!	!	!	!	!	!	!	!	!	!
32Re/	.	.	.	.	.	.	.	.	.	.	.	.	.	.	.	.	.	.	.	.	.	16cc/L 16c/	.	.	.	.	.	.	.	.	.	.	.	.	.	.	.
!LO:SIC:s=32C/	!	!	!	!	!	!	!	!	!	!	!	!	!	!	!	!	!	!	!	!	!	!	!	!	!	!	!	!	!	!	!	!	!	!	!	!	!
32Re/	.	.	.	.	.	.	.	.	.	.	.	.	.	.	.	.	.	.	.	.	.	.	.	.	.	.	.	.	.	.	.	.	.	.	.	.	.
!LO:SIC:s=32C/	!	!	!	!	!	!	!	!	!	!	!	!	!	!	!	!	!	!	!	!	!	!	!	!	!	!	!	!	!	!	!	!	!	!	!	!	!
32Re/	.	.	.	.	.	.	.	.	.	.	.	.	.	.	.	.	.	.	.	.	.	16cc/JJ 16c/	.	.	.	.	.	.	.	.	.	.	.	.	.	.	.
!LO:SIC:s=32C/	!	!	!	!	!	!	!	!	!	!	!	!	!	!	!	!	!	!	!	!	!	!	!	!	!	!	!	!	!	!	!	!	!	!	!	!	!
32Re/	.	.	.	.	.	.	.	.	.	.	.	.	.	.	.	.	.	.	.	.	.	.	.	.	.	.	.	.	.	.	.	.	[ >	.	.	.	.
!LO:SIC:s=32C/	!	!	!	!	!	!	!	!	!	!	!	!	!	!	!	!	!	!	!	!	!	!	!	!	!	!	!	!	!	!	!	!	!	!	!	!	!
32Re/	.	4A-X\)	.	4A-X\)	.	[ >	.	.	4f#X/)	.	.	.	.	.	4A-X/	.	4f#X/	.	.	.	.	8cc/L 8c/	4ryy	.	4A-X\ 4AA-X\	4ryy	.	.	.	.	.	4f#X\	.	4ff#X\	.	.	.
!LO:SIC:s=32C/	!	!	!	!	!	!	!	!	!	!	!	!	!	!	!	!	!	!	!	!	!	!	!	!	!	!	!	!	!	!	!	!	!	!	!	!	!
32Re/	.	.	.	.	.	.	.	.	.	.	.	.	.	[	.	.	.	.	.	.	.	.	.	.	.	.	.	.	.	.	.	.	.	.	.	.	.
!LO:SIC:s=32C/	!	!	!	!	!	!	!	!	!	!	!	!	!	!	!	!	!	!	!	!	!	!	!	!	!	!	!	!	!	!	!	!	!	!	!	!	!
32Re/	.	.	.	.	.	.	.	.	.	.	.	.	.	>	.	.	.	.	.	.	.	.	.	.	.	.	.	.	.	.	.	.	.	.	.	.	.
!LO:SIC:s=32C/	!	!	!	!	!	!	!	!	!	!	!	!	!	!	!	!	!	!	!	!	!	!	!	!	!	!	!	!	!	!	!	!	!	!	!	!	!
32Re/	.	.	.	.	.	.	.	.	.	.	.	.	.	.	.	.	.	.	.	.	.	.	.	.	.	.	.	.	.	.	.	.	.	.	.	.	.
!LO:SIC:s=32C/	!	!	!	!	!	!	!	!	!	!	!	!	!	!	!	!	!	!	!	!	!	!	!	!	!	!	!	!	!	!	!	!	!	!	!	!	!
32Re/	.	.	.	.	.	.	.	.	.	.	.	.	.	.	.	.	.	.	.	.	.	8cc/J 8c/	.	.	.	.	.	.	.	.	.	.	.	.	.	.	.
!LO:SIC:s=32C/	!	!	!	!	!	!	!	!	!	!	!	!	!	!	!	!	!	!	!	!	!	!	!	!	!	!	!	!	!	!	!	!	!	!	!	!	!
32Re/	.	.	.	.	.	.	.	.	.	.	.	.	.	.	.	.	.	.	.	.	.	.	.	.	.	.	.	.	.	.	.	.	.	.	.	.	.
!LO:SIC:s=32C/	!	!	!	!	!	!	!	!	!	!	!	!	!	!	!	!	!	!	!	!	!	!	!	!	!	!	!	!	!	!	!	!	!	!	!	!	!
32Re/	.	.	.	.	.	.	.	.	.	.	.	.	.	.	.	.	.	.	.	.	.	.	.	.	.	.	.	.	.	.	.	.	.	.	.	.	.
!LO:SIC:s=32C/JJJ	!	!	!	!	!	!	!	!	!	!	!	!	!	!	!	!	!	!	!	!	!	!	!	!	!	!	!	!	!	!	!	!	!	!	!	!	!
32Re/JJJ	.	.	.	.	.	.	.	.	.	.	.	.	.	.	.	.	.	.	.	.	.	.	.	.	.	.	.	.	.	.	.	.	]	.	.	.	[
!LO:SIC:s=4GG;\	!	!	!	!	!	!	!	!	!	!	!	!	!	!	!	!	!	!	!	!	!	!	!	!	!	!	!	!	!	!	!	!	!	!	!	!	!
4Re\	.	4G;\	.	4G;\	-na	]	4d;\	.	4g;/	.	.	4b;\	-na	]	4d/ 4G;/	.	4g/ 4B;/	4ryy	.	4b;\	.	4g/	4g\	.	4G\ 4GG;\	4ryy	.	4dd/ 4g;/	4ryy	.	4b;/	4g\	.	4gg;\	.	4bb;\	>
!	!	!	!	!	!	!	!	!	!	!	!	!	!	!	!	!	!	!	!	!	!	!	!	!	!	!LO:TX:a:t=2o.	!	!	!	!	!	!	!	!	!	!	!
4r	.	4r	]	8.G\	na	.	4r	.	8.g/	na	.	4r	.	.	4r	.	4r	4ryy	.	4r	.	8.g/L	8.g\L	.	4r	8.G\L	.	8.g/L	8.g\L	.	4r	4ryy	.	4r	.	4r	] ]]
.	.	.	.	16G\	ko-	.	.	.	16g/	ko-	.	.	.	.	.	.	.	.	.	.	.	16g/Jk	16g\Jk	.	.	16G\Jk	.	16g/Jk	16g\Jk	.	.	.	.	.	.	.	.
*	*	*	*	*	*	*	*	*	*	*	*	*	*	*	*	*	*v	*v	*	*	*	*	*	*	*	*	*	*	*	*	*v	*v	*	*	*	*	*
=4	=4	=4	=4	=4	=4	=4	=4	=4	=4	=4	=4	=4	=4	=4	=4	=4	=4	=4	=4	=4	=4	=4	=4	=4	=4	=4	=4	=4	=4	=4	=4	=4	=4	=4	=4
2r	.	2r	.	4G\	-la-	.	2r	.	4g/	-la-	.	2r	.	.	2r	.	2r	.	2r	.	4g/	4g\	.	2r	4G\	.	4g/	4g\	.	2r	.	2r	.	2r	.
.	.	.	.	4G\	-na	.	.	.	4g/	-na	.	.	.	.	.	.	.	.	.	.	[4g/	[4g\	.	.	[>4G\	.	[4g/	[4g\	.	.	.	.	.	.	.
!LO:SIC:s=32GG\LLL	!LO:HP:a	!LO:TX:t=P:problem=mixed beam	!	!	!	!	!	!	!	!	!	!	!	!	!LO:TX:t=P:problem=mixed beam	!	!	!	!	!	!	!	!	!	!	!	!	!	!	!	!	!	!	!	!
32Re\LLL	<	8.GG/L	.	8.G\	lu-	.	8.G/	.	8.g/	lu-	.	8.b\	lu-	<	8.G/L	.	8.g/L	<	8.b\L	<	8.g/L]	8.g\L]	.	8.B/L	8.G\]L	.	8.g/L]	8.g\L]	.	8.b/L 8.g/	.	8.gg\L	<	8.bb\L|	<
!LO:SIC:s=32GG\	!	!	!	!	!	!	!	!	!	!	!	!	!	!	!	!	!	!	!	!	!	!	!	!	!	!	!	!	!	!	!	!	!	!	!
32Re\	.	.	.	.	.	.	.	.	.	.	.	.	.	.	.	.	.	.	.	.	.	.	.	.	.	.	.	.	.	.	.	.	.	.	.
!LO:SIC:s=32GG\	!	!	!	!	!	!	!	!	!	!	!	!	!	!	!	!	!	!	!	!	!	!	!	!	!	!	!	!	!	!	!	!	!	!	!
32Re\	.	.	.	.	.	.	.	.	.	.	.	.	.	.	.	.	.	.	.	.	.	.	.	.	.	.	.	.	.	.	.	.	.	.	.
!LO:SIC:s=32GG\	!	!	!	!	!	!	!	!	!	!	!	!	!	!	!	!	!	!	!	!	!	!	!	!	!	!	!	!	!	!	!	!	!	!	!
32Re\	.	.	.	.	.	.	.	.	.	.	.	.	.	.	.	.	.	.	.	.	.	.	.	.	.	.	.	.	.	.	.	.	.	.	.
!LO:SIC:s=32GG\	!	!	!	!	!	!	!	!	!	!	!	!	!	!	!	!	!	!	!	!	!	!	!	!	!	!	!	!	!	!	!	!	!	!	!
32Re\	.	.	.	.	.	.	.	.	.	.	.	.	.	.	.	.	.	.	.	.	.	.	.	.	.	.	.	.	.	.	.	.	.	.	.
!LO:SIC:s=32GG\	!	!	!	!	!	!	!	!	!	!	!	!	!	!	!	!	!	!	!	!	!	!	!	!	!	!	!	!	!	!	!	!	!	!	!
32Re\	.	.	.	.	.	.	.	.	.	.	.	.	.	.	.	.	.	.	.	.	.	.	.	.	.	.	.	.	.	.	.	.	.	.	.
!LO:SIC:s=32GG\	!	!	!	!	!	!	!	!	!	!	!	!	!	!	!	!	!	!	!	!	!	!	!	!	!	!	!	!	!	!	!	!	!	!	!
32Re\	.	16G/K	.	16G\	-du	.	16A/	.	16g/	-du	.	16cc\	-du	.	16g\K	.	16a/K	.	16cc\K	.	16g/K	16g\K	.	16c/K	16A\K	.	16g/K	16g\K	.	16cc/K 16a/	.	16aa\K	.	16ccc\K|	.
!LO:SIC:s=32GG\	!	!	!	!	!	!	!	!	!	!	!	!	!	!	!	!	!	!	!	!	!	!	!	!	!	!	!	!	!	!	!	!	!	!	!
32Re\	.	.	.	.	.	.	.	.	.	.	.	.	.	.	.	.	.	.	.	.	.	.	.	.	.	.	.	.	.	.	.	.	.	.	.
!LO:SIC:s=32GG\	!	!	!	!	!	!	!	!	!	!	!	!	!	!	!	!	!	!	!	!	!	!	!	!	!	!	!	!	!	!	!	!	!	!	!
32Re\	.	8.GG/	.	8.G\	czcią	.	8.B\	.	8.g/	czcią	.	8.dd\	czcią	.	8.G\	.	8.b/	.	8.dd\	.	8.g/	8.g\	.	8.d/	8.B\	.	8.g/	8.g\	.	8.dd/ 8.b/	.	8.bb\	.	8.ddd\|	.
!LO:SIC:s=32GG\	!	!	!	!	!	!	!	!	!	!	!	!	!	!	!	!	!	!	!	!	!	!	!	!	!	!	!	!	!	!	!	!	!	!	!
32Re\	.	.	.	.	.	.	.	.	.	.	.	.	.	.	.	.	.	.	.	.	.	.	.	.	.	.	.	.	.	.	.	.	.	.	.
!LO:SIC:s=32GG\	!	!	!	!	!	!	!	!	!	!	!	!	!	!	!	!	!	!	!	!	!	!	!	!	!	!	!	!	!	!	!	!	!	!	!
32Re\	.	.	.	.	.	.	.	.	.	.	.	.	.	.	.	.	.	.	.	.	.	.	.	.	.	.	.	.	.	.	.	.	.	.	.
!LO:SIC:s=32GG\	!	!	!	!	!	!	!	!	!	!	!	!	!	!	!	!	!	!	!	!	!	!	!	!	!	!	!	!	!	!	!	!	!	!	!
32Re\	.	.	.	.	.	.	.	.	.	.	.	.	.	.	.	.	.	.	.	.	.	.	.	.	.	.	.	.	.	.	.	.	.	.	.
!LO:SIC:s=32GG\	!	!	!	!	!	!	!	!	!	!	!	!	!	!	!	!	!	!	!	!	!	!	!	!	!	!	!	!	!	!	!	!	!	!	!
32Re\	.	.	.	.	.	.	.	.	.	.	.	.	.	.	.	.	.	.	.	.	.	.	.	.	.	.	.	.	.	.	.	.	.	.	.
!LO:SIC:s=32GG\	!	!	!	!	!	!	!	!	!	!	!	!	!	!	!	!	!	!	!	!	!	!	!	!	!	!	!	!	!	!	!	!	!	!	!
32Re\	.	.	.	.	.	.	.	.	.	.	.	.	.	.	.	.	.	.	.	.	.	.	.	.	.	.	.	.	.	.	.	.	.	.	.
!LO:SIC:s=32GG\	!	!	!	!	!	!	!	!	!	!	!	!	!	!	!	!	!	!	!	!	!	!	!	!	!	!	!	!	!	!	!	!	!	!	!
32Re\	.	16G/Jk	.	16G\	prze	.	16c\	.	16g/	prze	.	16ee\	prze-	.	16g\Jk	.	16cc/Jk	.	16ee\Jk	.	16g/Jk	16g\Jk	.	16e/Jk	16c\Jk	.	16g/Jk	16g\Jk	.	16ee/Jk 16cc/	.	16ccc\Jk	.	16eee\Jk|	[[
!LO:SIC:s=32GG\JJJ	!	!	!	!	!	!	!	!	!	!	!	!	!	!	!	!	!	!	!	!	!	!	!	!	!	!	!	!	!	!	!	!	!	!	!
32Re\JJJ	[[	.	.	.	.	.	.	.	.	.	.	.	.	[	.	.	.	[	.	[	.	.	.	.	.	.	.	.	.	.	.	.	.	.	.
*	*	*	*	*	*	*	*	*	*	*	*	*	*	*	*	*	*	*	*	*	*	*	*	*v	*v	*	*	*	*	*	*	*	*	*	*
!!LO:LB:g=original
=5	=5	=5	=5	=5	=5	=5	=5	=5	=5	=5	=5	=5	=5	=5	=5	=5	=5	=5	=5	=5	=5	=5	=5	=5	=5	=5	=5	=5	=5	=5	=5	=5	=5	=5
*	*	*	*	*	*	*	*	*	*	*	*	*	*	*	*	*	*	*	*	*	*	*	*	*	*	*	*	*	*^	*	*	*	*	*
*	*	*2\right	*	*	*	*	*	*	*	*	*	*	*	*	*	*	*	*	*	*	*	*	*	*	*	*	*	*	*	*	*	*	*	*	*
*	*	*tremolo	*	*2\right	*	*	*	*	*	*	*	*	*	*	*tremolo	*	*tremolo	*	*tremolo	*	*	*	*	*2\right	*	*	*2\right	*	*	*2\right	*	*2\right	*	*	*
!	!	!	!	!	!	!	!	!	!	!	!	!	!	!LO:DY:rj:a	!	!	!	!	!	!	!	!	!	!	!	!	!	!	!	!	!	!	!	!	!
!	!	!	!	!	!	!LO:DY:rj:a	!	!LO:DY:rj:a	!	!	!LO:DY:rj:a	!	!	!	!	!	!	!	!	!	!	!	!	!	!	!	!	!	!	!	!LO:DY:rj	!	!	!	!
2r	.	16A-X\LL	f >	2A-X\	.	f	(2d\	f >	(>2f/	.	f	(2ff\	-ię-	f >	16a-X\LL 16f\	.	16dd\LL	.	16ff\LL	f >	2a-X/	2f\	.	2f\ 2d\	f >	2dd/	2f\	f	2ff/	2dd\	f	(2ddd\	[ f >	(2fff\	f >
.	.	16A-\	.	.	.	.	.	.	.	.	.	.	.	.	16a-\ 16f\	.	16dd\	.	16ff\	.	.	.	.	.	.	.	.	.	.	.	.	.	.	.	.
.	.	16A-\	.	.	.	.	.	.	.	.	.	.	.	.	16a-\ 16f\	.	16dd\	.	16ff\	.	.	.	.	.	.	.	.	.	.	.	.	.	.	.	.
.	.	16A-\	.	.	.	.	.	.	.	.	.	.	.	.	16a-\ 16f\	.	16dd\	.	16ff\	.	.	.	.	.	.	.	.	.	.	.	.	.	.	.	.
.	.	16A-\	.	.	.	.	.	.	.	.	.	.	.	.	16a-\ 16f\	.	16dd\	.	16ff\	.	.	.	.	.	.	.	.	.	.	.	.	.	.	.	.
.	.	16A-\	.	.	.	.	.	.	.	.	.	.	.	.	16a-\ 16f\	.	16dd\	.	16ff\	.	.	.	.	.	.	.	.	.	.	.	.	.	.	.	.
.	.	16A-\	.	.	.	.	.	.	.	.	.	.	.	.	16a-\ 16f\	.	16dd\	.	16ff\	.	.	.	.	.	.	.	.	.	.	.	.	.	.	.	.
.	.	16A-\JJ	]	.	.	.	.	.	.	.	.	.	.	.	16a-\JJ 16f\	.	16dd\JJ	.	16ff\JJ	.	.	.	.	.	]	.	.	.	.	.	.	.	]	.	]
4r	.	4G\	.	4G\	.	.	4B\)	]	4g/)	.	.	4dd\)	-ty	.	4g\	.	4b\	.	4dd\	]	4g/	4g\	.	4d\ 4B\	.	4dd/	4g\	.	4dd/	4b\	.	4bb\)	.	4ddd\)	.
!LO:SIC:o=	!	!	!	!	!	!	!	!	!	!	!	!	!	!	!	!	!	!	!	!	!	!	!	!	!	!	!	!	!	!	!	!	!	!	!
4GG\	.	4G\	.	4G\	.	.	4B\	.	4g/	.	.	4dd\	u-	]	4g\	.	4b\	.	4dd\	.	4g/ 4B/	4ryy	.	4d\ 4GG\	.	4dd/	4g\	.	4dd/	4b\	.	4bb\	.	4ddd\	.
*	*	*	*	*	*	*	*	*	*	*	*	*	*	*	*	*	*	*	*	*	*v	*v	*	*	*	*	*	*	*	*	*	*	*	*	*
=6	=6	=6	=6	=6	=6	=6	=6	=6	=6	=6	=6	=6	=6	=6	=6	=6	=6	=6	=6	=6	=6	=6	=6	=6	=6	=6	=6	=6	=6	=6	=6	=6	=6	=6
!LO:SIC:s=32C/LLL	!	!	!	!	!	!	!	!	!	!	!	!	!	!	!	!	!	!	!	!	!	!	!	!	!	!	!	!	!	!	!	!	!	!
32Re/LLL	.	16c\LL	.	4.c\	.	.	4.c\	.	4.g/	.	.	4.ee\	-wiel-	.	16g\LL	.	16cc\LL	.	16ee\LL	.	4.g/ 4.c/	.	4.c\ 4.C\|	.	4.ee/	4.cc\	.	4.ee/	4.cc\	.	4.ccc\	.	4.eee\|	.
!LO:SIC:s=32C/	!	!	!	!	!	!	!	!	!	!	!	!	!	!	!	!	!	!	!	!	!	!	!	!	!	!	!	!	!	!	!	!	!	!
32Re/	.	.	.	.	.	.	.	.	.	.	.	.	.	.	.	.	.	.	.	.	.	.	.	.	.	.	.	.	.	.	.	.	.	.
!LO:SIC:s=32C/	!	!	!	!	!	!	!	!	!	!	!	!	!	!	!	!	!	!	!	!	!	!	!	!	!	!	!	!	!	!	!	!	!	!
32Re/	.	16c\	.	.	.	.	.	.	.	.	.	.	.	.	16g\	.	16cc\	.	16ee\	.	.	.	.	.	.	.	.	.	.	.	.	.	.	.
!LO:SIC:s=32C/	!	!	!	!	!	!	!	!	!	!	!	!	!	!	!	!	!	!	!	!	!	!	!	!	!	!	!	!	!	!	!	!	!	!
32Re/	.	.	.	.	.	.	.	.	.	.	.	.	.	.	.	.	.	.	.	.	.	.	.	.	.	.	.	.	.	.	.	.	.	.
!LO:SIC:s=32C/	!	!	!	!	!	!	!	!	!	!	!	!	!	!	!	!	!	!	!	!	!	!	!	!	!	!	!	!	!	!	!	!	!	!
32Re/	.	16c\	.	.	.	.	.	.	.	.	.	.	.	.	16g\	.	16cc\	.	16ee\	.	.	.	.	.	.	.	.	.	.	.	.	.	.	.
!LO:SIC:s=32C/	!	!	!	!	!	!	!	!	!	!	!	!	!	!	!	!	!	!	!	!	!	!	!	!	!	!	!	!	!	!	!	!	!	!
32Re/	.	.	.	.	.	.	.	.	.	.	.	.	.	.	.	.	.	.	.	.	.	.	.	.	.	.	.	.	.	.	.	.	.	.
!LO:SIC:s=32C/	!	!	!	!	!	!	!	!	!	!	!	!	!	!	!	!	!	!	!	!	!	!	!	!	!	!	!	!	!	!	!	!	!	!
32Re/	.	16c\JJ	.	.	.	.	.	.	.	.	.	.	.	.	16g\	.	16cc\	.	16ee\	.	.	.	.	.	.	.	.	.	.	.	.	.	.	.
!LO:SIC:s=32C/JJJ	!	!	!	!	!	!	!	!	!	!	!	!	!	!	!	!	!	!	!	!	!	!	!	!	!	!	!	!	!	!	!	!	!	!
32Re/JJJ	.	.	.	.	.	.	.	.	.	.	.	.	.	.	.	.	.	.	.	.	.	.	.	.	.	.	.	.	.	.	.	.	.	.
!LO:SIC:s=8C/L	!	!	!	!	!	!	!	!	!	!	!	!	!	!	!	!	!	!	!	!	!	!	!	!	!	!	!	!	!	!	!	!	!	!
8Re/	.	16c\LL	.	.	.	.	.	.	.	.	.	.	.	.	16g\	.	16cc\	.	16ee\	.	.	.	.	.	.	.	.	.	.	.	.	.	.	.
.	.	16c\	.	.	.	.	.	.	.	.	.	.	.	.	16g\	.	16cc\	.	16ee\	.	.	.	.	.	.	.	.	.	.	.	.	.	.	.
!LO:SIC:s=8C/J	!	!	!	!	!	!	!	!	!	!	!	!	!	!	!	!	!	!	!	!	!	!	!	!	!	!	!	!	!	!	!	!	!	!
8Re/	.	16B\	.	8c\	.	.	8c\	.	8g/	.	.	8ee\	-biay	.	16g\	.	16cc\	.	16ee\	.	8g/ 8c/	.	8B\ 8BB\|	.	8ee/	8cc\	.	8ee/	8cc\	.	8ccc\	.	8eee\|	.
.	.	16B\JJ	.	.	.	.	.	.	.	.	.	.	.	.	16g\JJ	.	16cc\	.	16ee\JJ	.	.	.	.	.	.	.	.	.	.	.	.	.	.	.
!LO:SIC:s=4C^/	!	!	!	!	!	!	!	!	!	!	!	!	!	!	!	!	!	!	!	!	!	!	!	!	!	!	!	!	!	!	!	!	!	!
4Re^/	.	16A\LL	.	4A\	.	.	4c\	.	4f/	.	.	4ff\	twe-	.	16f\LL	.	16cc\	.	(16ff^<\LL	.	2f/ 2c/	.	2A\ 2AA^<\	.	2ff/	2cc^\	.	(4ff/	[4cc\	.	[4ccc\	.	(4fff\	>
.	.	16A\	.	.	.	.	.	.	.	.	.	.	.	.	16f\	.	16cc\	.	16ff\	.	.	.	.	.	.	.	.	.	.	.	.	.	.	.
.	.	16A\	.	.	.	.	.	.	.	.	.	.	.	.	16f\	.	16cc\	.	16ff\	.	.	.	.	.	.	.	.	.	.	.	.	.	.	.
.	.	16A\	.	.	.	.	.	.	.	.	.	.	.	.	16f\	.	16cc\	.	16ff\JJ	.	.	.	.	.	.	.	.	.	.	.	.	.	.	.
!LO:SIC:s=4C/	!	!	!	!	!	!	!	!	!	!	!	!	!	!	!	!	!	!	!	!	!	!	!	!	!	!	!	!	!	!	!	!	!	!
4Re/	.	16A\	.	4A\	.	.	4c\	.	4f/	.	.	4ee\	-go	.	16f\	.	16cc\	.	16ee\LL	.	.	.	.	.	.	.	.	4ee/)	4cc\]	.	4ccc\]	.	4eee\)	]
.	.	16A\	.	.	.	.	.	.	.	.	.	.	.	.	16f\	.	16cc\	.	16ee\	.	.	.	.	.	.	.	.	.	.	.	.	.	.	.
.	.	16A\	.	.	.	.	.	.	.	.	.	.	.	.	16f\	.	16cc\	.	16ee\	.	.	.	.	.	.	.	.	.	.	.	.	.	.	.
.	.	16A\JJ	.	.	.	.	.	.	.	.	.	.	.	.	16f\JJ	.	16cc\JJ	.	16ee\JJ)	.	.	.	.	.	.	.	.	.	.	.	.	.	.	.
=7	=7	=7	=7	=7	=7	=7	=7	=7	=7	=7	=7	=7	=7	=7	=7	=7	=7	=7	=7	=7	=7	=7	=7	=7	=7	=7	=7	=7	=7	=7	=7	=7	=7	=7
*	*	*	*	*	*	*	*	*	*	*	*	*	*	*	*	*	*	*	*	*	*^	*	*	*	*	*	*	*	*	*	*	*	*	*
1r	.	16B\LL	.	4.B\	.	.	4.B\	.	4.f/	.	.	4.dd\	Pa-	.	16f\LL	.	16b\LL	.	16dd\LL	.	4.f/	4.B\	.	4.B\ 4.BB\	.	4.ff/	4.dd\	.	4.dd/	4.b\	.	4.bb\	.	4.ddd\|	.
.	.	16B\	.	.	.	.	.	.	.	.	.	.	.	.	16f\	.	16b\	.	16dd\	.	.	.	.	.	.	.	.	.	.	.	.	.	.	.	.
.	.	16B\	.	.	.	.	.	.	.	.	.	.	.	.	16f\	.	16b\	.	16dd\	.	.	.	.	.	.	.	.	.	.	.	.	.	.	.	.
.	.	16B\JJ	.	.	.	.	.	.	.	.	.	.	.	.	16f\	.	16b\	.	16dd\	.	.	.	.	.	.	.	.	.	.	.	.	.	.	.	.
.	.	16B\LL	.	.	.	.	.	.	.	.	.	.	.	.	16f\	.	16b\	.	16dd\	.	.	.	.	.	.	.	.	.	.	.	.	.	.	.	.
.	.	16B\	.	.	.	.	.	.	.	.	.	.	.	.	16f\	.	16b\	.	16dd\	.	.	.	.	.	.	.	.	.	.	.	.	.	.	.	.
.	.	16A\	.	8A\	.	.	8B\	.	8f/	.	.	8dd\	-na	.	16f\	.	16b\	.	16dd\	.	8f/	8B\	.	8A\ 8AA\	.	8ff/	8dd\	.	8dd/	8b\	.	8bb\	.	8ddd\|	.
.	.	16A\JJ	.	.	.	.	.	.	.	.	.	.	.	.	16f\JJ	.	16b\	.	16dd\JJ	.	.	.	.	.	.	.	.	.	.	.	.	.	.	.	.
.	.	16G#X\LL	.	4G#X\	.	.	4B\	.	4e/	.	.	4ee\	świę-	.	16e\LL	.	16b\	.	(16ee\LL	.	2e/	2B\	.	2G#X\ 2GG#X^<\	.	2ee/	2ee^\	.	4ee/	2b\	.	[4bb\	.	(4eee\	>
.	.	16G#\	.	.	.	.	.	.	.	.	.	.	.	.	16e\	.	16b\	.	16ee\	.	.	.	.	.	.	.	.	.	.	.	.	.	.	.	.
.	.	16G#\	.	.	.	.	.	.	.	.	.	.	.	.	16e\	.	16b\	.	16ee\	.	.	.	.	.	.	.	.	.	.	.	.	.	.	.	.
.	.	16G#\	.	.	.	.	.	.	.	.	.	.	.	.	16e\	.	16b\	.	16ee\JJ	.	.	.	.	.	.	.	.	.	.	.	.	.	.	.	.
.	.	16G#\	.	4G#\	.	.	4B\	.	4e/	.	.	4dd\	-ty	.	16e\	.	16b\	.	16dd\LL	.	.	.	.	.	.	.	.	.	4dd/	.	.	4bb\]	.	4ddd\)	]]
.	.	16G#\	.	.	.	.	.	.	.	.	.	.	.	.	16e\	.	16b\	.	16dd\	.	.	.	.	.	.	.	.	.	.	.	.	.	.	.	.
.	.	16G#\	.	.	.	.	.	.	.	.	.	.	.	.	16e\	.	16b\	.	16dd\	.	.	.	.	.	.	.	.	.	.	.	.	.	.	.	.
.	.	16G#\JJ	.	.	.	.	.	.	.	.	.	.	.	.	16e\JJ	.	16b\JJ	.	16dd\JJ)	.	.	.	.	.	.	.	.	.	.	.	.	.	.	.	.
=8	=8	=8	=8	=8	=8	=8	=8	=8	=8	=8	=8	=8	=8	=8	=8	=8	=8	=8	=8	=8	=8	=8	=8	=8	=8	=8	=8	=8	=8	=8	=8	=8	=8	=8	=8
!	!	!	!	!	!	!	!	!	!	!	!	!	!	!LO:DY:a	!	!	!	!	!	!	!	!	!	!	!	!	!	!	!	!	!	!	!	!	!
2r	.	16A\LL	.	4A\	.	.	2.A\	.	(2e/	.	.	(4cc\	świę-	<	16e\LL	.	16a/LL	.	16cc\LL	.	2e/	4c\	.	(4A\ 4AA\	.	2ee/	2ee\	.	(4cc/	2.a\	.	2.aa\	.	(4ccc\	.
.	.	16A\	.	.	.	.	.	.	.	.	.	.	.	.	16e\	.	16a/	.	16cc\	.	.	.	.	.	.	.	.	.	.	.	.	.	.	.	.
.	.	16A\	.	.	.	.	.	.	.	.	.	.	.	.	16e\	.	16a/	.	16cc\	.	.	.	.	.	.	.	.	.	.	.	.	.	.	.	<
.	.	16A\JJ	.	.	.	.	.	.	.	.	.	.	.	.	16e\	.	16a/	.	16cc\JJ	.	.	.	.	.	.	.	.	.	.	.	.	.	.	.	.
.	.	16Gn\LL	.	4Gn\	.	.	.	.	.	.	.	4cc#X\	.	.	16e\	.	16a/	.	16cc#X\LL	.	.	4c#X\	.	4Gn\ 4GGn\	.	.	.	.	4cc#X/	.	.	.	.	4ccc#X\	.
.	.	16G\	.	.	.	.	.	.	.	.	.	.	.	.	16e\	.	16a/	.	16cc#\	.	.	.	.	.	.	.	.	.	.	.	.	.	.	.	.
.	.	16G\	.	.	.	.	.	.	.	.	.	.	.	.	16e\	.	16a/	.	16cc#\	.	.	.	.	.	.	.	.	.	.	.	.	.	.	.	.
.	.	16G\JJ	.	.	.	.	.	.	.	.	.	.	.	.	16e\JJ	.	16a/	.	16cc#\JJ	.	.	.	.	.	.	.	.	.	.	.	.	.	.	.	.
4r	.	16F\LL	.	4F\	.	.	.	.	4f/)	.	.	8.dd\L	.	.	16f\LL	.	16a/	.	16dd\LL	.	4f/	4d\	.	4F\ 4FF\	.	4dd/	4dd\	.	4dd/	.	.	.	.	4ddd\)	.
.	.	16F\	.	.	.	.	.	.	.	.	.	.	.	.	16f\	.	16a/	.	16dd\	.	.	.	.	.	.	.	.	.	.	.	.	.	.	.	.
.	.	16F\	.	.	.	.	.	.	.	.	.	.	.	.	16f\	.	16a/	.	16dd\	.	.	.	.	.	.	.	.	.	.	.	.	.	.	.	.
.	.	16F\JJ	.	.	.	.	.	.	.	.	.	16aa\Jk)	.	.	16f\JJ	.	16a/JJ	.	16dd\JJ	.	.	.	.	.	.	.	.	.	.	.	.	.	.	.	.
!LO:SIC:s=32C/LLL	!	!	!	!	!	!	!	!	!	!	!	!	!	!	!	!	!	!	!	!	!	!	!	!	!	!	!	!	!	!	!	!	!	!	!
32Re/LLL	<	16F#X\LL	.	4F#X\	.	.	4c\	.	4a/	.	.	4aa\	-ty	[	16a\LL 16f#X\	.	16cc/LL 16e-X/	.	16aa\LL	.	4f#X/	[4c#\	.	4F#X\ 4FF#X\)	.	4ee-X/	4cc\	.	4aa/)	[4cc#\	.	[4ccc\	.	4aaa\	[[
!LO:SIC:s=32C/	!	!	!	!	!	!	!	!	!	!	!	!	!	!	!	!	!	!	!	!	!	!	!	!	!	!	!	!	!	!	!	!	!	!	!
32Re/	.	.	.	.	.	.	.	.	.	.	.	.	.	.	.	.	.	.	.	.	.	.	.	.	.	.	.	.	.	.	.	.	.	.	.
!LO:SIC:s=32C/	!	!	!	!	!	!	!	!	!	!	!	!	!	!	!	!	!	!	!	!	!	!	!	!	!	!	!	!	!	!	!	!	!	!	!
32Re/	.	16F#\	.	.	.	.	.	.	.	.	.	.	.	.	16a\ 16f#\	.	16cc/ 16e-/	.	16aa\	.	.	.	.	.	.	.	.	.	.	.	.	.	.	.	.
!LO:SIC:s=32C/	!	!	!	!	!	!	!	!	!	!	!	!	!	!	!	!	!	!	!	!	!	!	!	!	!	!	!	!	!	!	!	!	!	!	!
32Re/	.	.	.	.	.	.	.	.	.	.	.	.	.	.	.	.	.	.	.	.	.	.	.	.	.	.	.	.	.	.	.	.	.	.	.
!LO:SIC:s=32C/	!	!	!	!	!	!	!	!	!	!	!	!	!	!	!	!	!	!	!	!	!	!	!	!	!	!	!	!	!	!	!	!	!	!	!
32Re/	.	16F#\	.	.	.	.	.	.	.	.	.	.	.	.	16a\ 16f#\	.	16cc/ 16e-/	.	16aa\	.	.	.	.	.	.	.	.	.	.	.	.	.	.	.	.
!LO:SIC:s=32C/	!	!	!	!	!	!	!	!	!	!	!	!	!	!	!	!	!	!	!	!	!	!	!	!	!	!	!	!	!	!	!	!	!	!	!
32Re/	.	.	.	.	.	.	.	.	.	.	.	.	.	.	.	.	.	.	.	.	.	.	.	.	.	.	.	.	.	.	.	.	.	.	.
!LO:SIC:s=32C/	!	!	!	!	!	!	!	!	!	!	!	!	!	!	!	!	!	!	!	!	!	!	!	!	!	!	!	!	!	!	!	!	!	!	!
32Re/	.	16F#\JJ	.	.	.	.	.	.	.	.	.	.	.	.	16a\JJ 16f#\	.	16cc/JJ 16e-/	.	16aa\JJ	.	.	.	.	.	.	.	.	.	.	.	.	.	.	.	.
!LO:SIC:s=32C/JJJ	!	!	!	!	!	!	!	!	!	!	!	!	!	!	!	!	!	!	!	!	!	!	!	!	!	!	!	!	!	!	!	!	!	!	!
32Re/JJJ	[[	.	.	.	.	.	.	.	.	.	.	.	.	.	.	.	.	.	.	.	.	.	.	.	.	.	.	.	.	.	.	.	.	.	.
=9	=9	=9	=9	=9	=9	=9	=9	=9	=9	=9	=9	=9	=9	=9	=9	=9	=9	=9	=9	=9	=9	=9	=9	=9	=9	=9	=9	=9	=9	=9	=9	=9	=9	=9	=9
!LO:SIC:s=4GG\	!	!	!	!	!	!	!	!	!	!	!LO:DY:rj:a	!	!	!LO:DY:rj:a	!	!	!	!	!	!	!	!	!	!	!	!	!	!	!	!	!	!	!	!	!LO:DY:rj:a
4Re\	f	16G\LL	.	1G\	.	.	(4c\	.	1g/	.	f	(4dd\	swię-	f	16g\LL	.	16cc/LL 16d/	.	16dd\LL	.	2g/	4c#\]	.	2G\ 2GG\	.	4dd/	[>2g\	.	4dd/	4cc#\]	.	4ccc\]	.	4ddd\|	f
.	.	16G\	.	.	.	.	.	.	.	.	.	.	.	.	16g\	.	16cc/ 16d/	.	16dd\	.	.	.	.	.	.	.	.	.	.	.	.	.	.	.	.
.	.	16G\	.	.	.	.	.	.	.	.	.	.	.	.	16g\	.	16cc/ 16d/	.	16dd\	.	.	.	.	.	.	.	.	.	.	.	.	.	.	.	.
.	.	16G\JJ	.	.	.	.	.	.	.	.	.	.	.	.	16g\JJ	.	16cc/JJ 16d/	.	16dd\JJ	.	.	.	.	.	.	.	.	.	.	.	.	.	.	.	.
!LO:SIC:s=8.GG\L	!	!	!	!	!	!	!	!	!	!	!	!	!	!	!	!	!	!	!	!	!	!	!	!	!	!	!	!	!	!	!	!	!	!	!
8.Re\	.	8.G\L	.	.	.	.	8.B\L	.	.	.	.	8.ee\L	.	.	8.g\L	.	8.b/L	.	8.ee\L	.	.	8.B\L	.	.	.	8.ee/L	.	.	8.ee/L	8.b\L	.	8.bb\L|	.	8.eee\L|	.
!LO:SIC:s=16GG\Jk	!	!	!	!	!	!	!	!	!	!	!	!	!	!	!	!	!	!	!	!	!	!	!	!	!	!	!	!	!	!	!	!	!	!	!
16Re\	.	16G\Jk	.	.	.	.	16A\Jk	.	.	.	.	16ff\Jk)	.	.	16g\Jk	.	16a/Jk	.	16ff\Jk	.	.	16A\Jk	.	.	.	16ff/Jk	.	.	16ff/Jk	16a\Jk	.	16aa\Jk|	.	16fff\Jk|	.
!LO:SIC:s=4GG\	!	!	!	!	!	!	!	!	!	!	!	!	!	!	!	!	!	!	!	!	!	!	!	!	!	!	!	!	!	!	!	!	!	!	!
4Re\	.	4G\	.	.	.	.	2B\)	.	.	.	.	2gg\	.	.	4g\	.	4b/	.	4gg\	.	4g/	4B\	.	4G\ 4GG\	.	4gg/	4g\]	.	4gg/	4b\	.	4bb\	.	4ggg\|	.
!LO:SIC:s=4GG\	!	!	!	!	!	!	!	!	!	!	!	!	!	!	!	!	!	!	!	!	!	!	!	!	!	!	!	!	!	!	!	!	!	!	!
4Re\	.	4G\	.	.	.	.	.	.	.	.	.	.	.	.	4g\ 4G\	.	4b/ 4d/ 4G/	.	4gg\ 4b\ 4d\	.	4g/	4B\	.	4G\ 4GG\	.	4gg/	4g\	.	4gg/	4b\	.	4bb\	.	4ggg\|	.
*	*	*	*	*	*	*	*	*	*	*	*	*	*	*	*	*	*	*	*	*	*v	*v	*	*	*	*	*	*	*	*	*	*	*	*	*
!!LO:LB:g=original
=10	=10	=10	=10	=10	=10	=10	=10	=10	=10	=10	=10	=10	=10	=10	=10	=10	=10	=10	=10	=10	=10	=10	=10	=10	=10	=10	=10	=10	=10	=10	=10	=10	=10	=10
!LO:TX:t=1. 2. 3.	!	!	!	!	!	!	!	!	!	!	!	!	!	!	!	!	!	!	!	!	!	!	!	!	!	!	!	!	!	!	!	!	!	!
*>A1	*	*	*	*	*	*	*	*	*	*	*	*	*	*	*	*	*	*	*	*	*	*	*	*	*	*	*	*	*	*	*	*	*	*
!LO:SIC:s=32C/LLL	!	!	!	!	!	!	!	!	!	!	!	!	!	!	!	!	!	!	!	!	!	!	!	!	!	!	!	!	!	!	!	!	!	!
32Re/LLL	.	16c\LL	.	4c\ 4C\	.	.	4c\	.	4c/	.	.	4cc\	-ty!	.	16c\LL	.	16cc\LL	.	16cc\LL	.	4c/	.	4c\ 4C\	.	4cc/	4cc\	.	4cc/	4cc\	.	4ccc\	.	4ccc\	.
!LO:SIC:s=32C/	!	!	!	!	!	!	!	!	!	!	!	!	!	!	!	!	!	!	!	!	!	!	!	!	!	!	!	!	!	!	!	!	!	!
32Re/	.	.	.	.	.	.	.	.	.	.	.	.	.	.	.	.	.	.	.	.	.	.	.	.	.	.	.	.	.	.	.	.	.	.
!LO:SIC:s=32C/	!	!	!	!	!	!	!	!	!	!	!	!	!	!	!	!	!	!	!	!	!	!	!	!	!	!	!	!	!	!	!	!	!	!
32Re/	.	16c\	.	.	.	.	.	.	.	.	.	.	.	.	16c\	.	16cc\	.	16cc\	.	.	.	.	.	.	.	.	.	.	.	.	.	.	.
!LO:SIC:s=32C/	!	!	!	!	!	!	!	!	!	!	!	!	!	!	!	!	!	!	!	!	!	!	!	!	!	!	!	!	!	!	!	!	!	!
32Re/	.	.	.	.	.	.	.	.	.	.	.	.	.	.	.	.	.	.	.	.	.	.	.	.	.	.	.	.	.	.	.	.	.	.
!LO:SIC:s=32C/	!	!	!	!	!	!	!	!	!	!	!	!	!	!	!	!	!	!	!	!	!	!	!	!	!	!	!	!	!	!	!	!	!	!
32Re/	.	16c\	.	.	.	.	.	.	.	.	.	.	.	.	16c\	.	16cc\	.	16cc\	.	.	.	.	.	.	.	.	.	.	.	.	.	.	.
!LO:SIC:s=32C/	!	!	!	!	!	!	!	!	!	!	!	!	!	!	!	!	!	!	!	!	!	!	!	!	!	!	!	!	!	!	!	!	!	!
32Re/	.	.	.	.	.	.	.	.	.	.	.	.	.	.	.	.	.	.	.	.	.	.	.	.	.	.	.	.	.	.	.	.	.	.
!LO:SIC:s=32C/	!	!	!	!	!	!	!	!	!	!	!	!	!	!	!	!	!	!	!	!	!	!	!	!	!	!	!	!	!	!	!	!	!	!
32Re/	.	16c\JJ	.	.	.	.	.	.	.	.	.	.	.	.	16c\JJ	.	16cc\JJ	.	16cc\JJ	.	.	.	.	.	.	.	.	.	.	.	.	.	.	.
!LO:SIC:s=32C/	!	!	!	!	!	!	!	!	!	!	!	!	!	!	!	!	!	!	!	!	!	!	!	!	!	!	!	!	!	!	!	!	!	!
32Re/	.	.	.	.	.	.	.	.	.	.	.	.	.	.	.	.	.	.	.	.	.	.	.	.	.	.	.	.	.	.	.	.	.	.
!LO:SIC:s=32C/	!	!	!	!	!	!	!	!	!	!	!	!	!	!	!	!	!	!	!	!	!	!	!	!	!	!	!	!	!	!	!	!	!	!
32Re/	.	16G\LL	.	4r	.	.	4r	.	4r	.	.	4r	.	.	16g\LL	.	16e/LL	.	16ee\LL	.	8e/L	.	8G\L	.	8gg\L 8g\	4ryy	.	8ee/L	8ee\L	.	8ee\L	.	8.eee\L	.
!LO:SIC:s=32C/	!	!	!	!	!	!	!	!	!	!	!	!	!	!	!	!	!	!	!	!	!	!	!	!	!	!	!	!	!	!	!	!	!	!
32Re/	.	.	.	.	.	.	.	.	.	.	.	.	.	.	.	.	.	.	.	.	.	.	.	.	.	.	.	.	.	.	.	.	.	.
!LO:SIC:s=32C/	!	!	!	!	!	!	!	!	!	!	!	!	!	!	!	!	!	!	!	!	!	!	!	!	!	!	!	!	!	!	!	!	!	!
32Re/	.	16G\	.	.	.	.	.	.	.	.	.	.	.	.	16g\	.	16e/	.	16ee\	.	.	.	.	.	.	.	.	.	.	.	.	.	.	.
!LO:SIC:s=32C/	!	!	!	!	!	!	!	!	!	!	!	!	!	!	!	!	!	!	!	!	!	!	!	!	!	!	!	!	!	!	!	!	!	!
32Re/	.	.	.	.	.	.	.	.	.	.	.	.	.	.	.	.	.	.	.	.	.	.	.	.	.	.	.	.	.	.	.	.	.	.
!LO:SIC:s=32C/	!	!	!	!	!	!	!	!	!	!	!	!	!	!	!	!	!	!	!	!	!	!	!	!	!	!	!	!	!	!	!	!	!	!
32Re/	.	16E\	.	.	.	.	.	.	.	.	.	.	.	.	16e\	.	16g/	.	16gg\	.	8g/J	.	8E\J	.	8ee\J 8e\	.	.	8gg/J	8gg\J	.	8gg\J	.	.	.
!LO:SIC:s=32C/	!	!	!	!	!	!	!	!	!	!	!	!	!	!	!	!	!	!	!	!	!	!	!	!	!	!	!	!	!	!	!	!	!	!
32Re/	.	.	.	.	.	.	.	.	.	.	.	.	.	.	.	.	.	.	.	.	.	.	.	.	.	.	.	.	.	.	.	.	.	.
!LO:SIC:s=32C/	!	!	!	!	!	!	!	!	!	!	!	!	!	!	!	!	!	!	!	!	!	!	!	!	!	!	!	!	!	!	!	!	!	!
32Re/	.	16E\JJ	.	.	.	.	.	.	.	.	.	.	.	.	16e\JJ	.	16g/JJ	.	16gg\JJ	.	.	.	.	.	.	.	.	.	.	.	.	.	16eee\Jk	.
!LO:SIC:s=32C/JJJ	!	!	!	!	!	!	!	!	!	!	!	!	!	!	!	!	!	!	!	!	!	!	!	!	!	!	!	!	!	!	!	!	!	!
32Re/JJJ	.	.	.	.	.	.	.	.	.	.	.	.	.	.	.	.	.	.	.	.	.	.	.	.	.	.	.	.	.	.	.	.	.	.
*Xtremolo	*Xtremolo	*	*	*	*	*	*	*	*	*	*	*	*	*	*Xtremolo	*	*Xtremolo	*	*Xtremolo	*	*	*	*	*	*	*	*	*	*	*	*	*	*	*
!LO:SIC:s=8C/	!	!	!	!	!	!	!	!	!	!	!	!	!	!	!	!	!	!	!	!	!	!	!	!	!	!	!	!	!	!	!	!	!	!
8Re/	.	8C\	.	4r	.	.	4r	.	4r	.	.	4r	.	.	8c\	.	8cc\	.	8ccc\	.	8cc\	.	8C/	.	8cc/ 8c/	4ryy	.	8ccc\ 8cc\	4ryy	.	8ccc\	.	8ccc\	.
8r	.	8r	.	.	.	.	.	.	.	.	.	.	.	.	8r	.	8r	.	8r	.	8r	.	8r	.	8r	.	.	8r	.	.	8r	.	8r	.
=11:|!	=11:|!	=11:|!	=11:|!	=11:|!	=11:|!	=11:|!	=11:|!	=11:|!	=11:|!	=11:|!	=11:|!	=11:|!	=11:|!	=11:|!	=11:|!	=11:|!	=11:|!	=11:|!	=11:|!	=11:|!	=11:|!	=11:|!	=11:|!	=11:|!	=11:|!	=11:|!	=11:|!	=11:|!	=11:|!	=11:|!	=11:|!	=11:|!	=11:|!	=11:|!
!LO:TX:t=4.	!	!	!	!	!	!	!	!	!	!	!	!	!	!	!	!	!	!	!	!	!	!	!	!	!	!	!	!	!	!	!	!	!	!
*>A2	*	*	*	*	*	*	*	*	*	*	*	*	*	*	*	*	*	*	*	*	*	*	*	*	*	*	*	*	*	*	*	*	*	*
*	*	*	*	*	*	*	*	*	*	*	*	*	*	*	*	*	*	*	*	*	*^	*	*	*	*	*	*	*	*^	*	*	*	*	*
!LO:SIC:s=4C/	!	!	!	!	!	!	!	!	!	!	!	!	!	!	!	!	!	!	!	!	!	!	!	!	!	!	!	!	!	!	!	!	!	!	!	!
4Re/	.	4c\	.	4c\ 4C\	.	.	4c\	.	4c/	.	.	4cc\	ty!	.	4c\	.	4cc/ 4e/ 4G/	.	4cc\	.	4c/	4c\	.	4c\ 4C\	.	[1cc/	[1cc\	.	[1cc/	2cc/	2cc\	.	4ccc\	.	4ccc\	.
4r	.	4r	.	4r	.	.	4r	.	4r	.	.	4r	.	.	4r	.	4r	.	4r	.	4r	4ryy	.	4r	.	.	.	.	.	.	.	.	(4cc\	.	4r	.
2r	.	2r	.	2r	.	.	2r	.	2r	.	.	2r	.	.	2r	.	2r	.	2r	.	2r	2ryy	.	2r	.	.	.	.	.	4b\	2ryy	.	4dd\	.	2r	.
.	.	.	.	.	.	.	.	.	.	.	.	.	.	.	.	.	.	.	.	.	.	.	.	.	.	.	.	.	.	4b-X\	.	.	4ee\	.	.	.
*	*	*	*	*	*	*	*	*	*	*	*	*	*	*	*	*	*	*	*	*	*v	*v	*	*	*	*	*	*	*	*v	*v	*	*	*	*	*
=12	=12	=12	=12	=12	=12	=12	=12	=12	=12	=12	=12	=12	=12	=12	=12	=12	=12	=12	=12	=12	=12	=12	=12	=12	=12	=12	=12	=12	=12	=12	=12	=12	=12	=12
*>B	*	*	*	*	*	*	*	*	*	*	*	*	*	*	*	*	*	*	*	*	*	*	*	*	*	*	*	*	*	*	*	*	*	*
1r	.	1r	.	1r	.	.	1r	.	1r	.	.	1r	.	.	1r	.	1r	.	1r	.	1r	.	1r	.	1cc/]	1cc\]	.	1cc/_	2a\	.	2.ff\)	.	1r	.
.	.	.	.	.	.	.	.	.	.	.	.	.	.	.	.	.	.	.	.	.	.	.	.	.	.	.	.	.	4a-X\	.	.	.	.	.
.	.	.	.	.	.	.	.	.	.	.	.	.	.	.	.	.	.	.	.	.	.	.	.	.	.	.	.	.	4g\	.	4ee\	.	.	.
=13	=13	=13	=13	=13	=13	=13	=13	=13	=13	=13	=13	=13	=13	=13	=13	=13	=13	=13	=13	=13	=13	=13	=13	=13	=13	=13	=13	=13	=13	=13	=13	=13	=13	=13
1r	.	1r	.	1r	.	.	1r	.	1r	.	.	1r	.	.	1r	.	1r	.	1r	.	1r	.	1A\ 1F\	.	1cc/	1cc\	.	2cc/]	1a\	.	(2dd\	.	1r	.
.	.	.	.	.	.	.	.	.	.	.	.	.	.	.	.	.	.	.	.	.	.	.	.	.	.	.	.	2dd/	.	.	2aa\)	.	.	.
*	*	*	*	*	*	*	*	*	*	*	*	*	*	*	*	*	*	*	*	*	*	*	*	*	*v	*v	*	*	*	*	*	*	*	*
=14	=14	=14	=14	=14	=14	=14	=14	=14	=14	=14	=14	=14	=14	=14	=14	=14	=14	=14	=14	=14	=14	=14	=14	=14	=14	=14	=14	=14	=14	=14	=14	=14	=14
1r	.	1r	.	1r	.	.	1r	.	1r	.	.	1r	.	.	1r	.	1r	.	1r	.	2r	.	1A\ 1F#X\	.	1cc\	.	2cc/	2a\	.	(2ee-X\	.	1r	.
.	.	.	.	.	.	.	.	.	.	.	.	.	.	.	.	.	.	.	.	.	2a/ 2f#X^>/	.	.	.	.	.	2ee-X/	2cc^\	.	2aa^<\)	.	.	.
=15	=15	=15	=15	=15	=15	=15	=15	=15	=15	=15	=15	=15	=15	=15	=15	=15	=15	=15	=15	=15	=15	=15	=15	=15	=15	=15	=15	=15	=15	=15	=15	=15	=15
!LO:SIC:s=4GG\	!	!	!LO:DY:rj:a	!	!	!	!	!	!	!	!	!	!	!	!	!	!	!LO:DY:rj	!	!LO:DY:rj	!	!	!	!	!	!	!	!	!LO:DY:rj:a	!	!	!	!LO:DY:rj
4Re\	.	[4G\	f	1r	.	.	1r	.	1r	.	.	1r	.	.	[4g\	.	4cc\	f	4dd\|	f	4g/	.	[4G\	.	4dd/ 4g/	.	4dd/	4cc\	f	4dd\|	.	4ddd\|	f
!LO:SIC:s=8.GG\L	!	!	!	!	!	!	!	!	!	!	!	!	!	!	!	!	!	!	!	!	!	!	!	!	!	!	!	!	!	!	!	!	!
8.Re\	.	8.G\L]	.	.	.	.	.	.	.	.	.	.	.	.	8.g\L]	.	8.b\L	.	8.ee\L|	.	8.g/L	.	8.G\L]	.	4r	.	8.een/L	8.b\L	.	8.een\L|	.	8.eeen\L|	.
!LO:SIC:s=16GG\Jk	!	!	!	!	!	!	!	!	!	!	!	!	!	!	!	!	!	!	!	!	!	!	!	!	!	!	!	!	!	!	!	!	!
16Re\	.	16G\Jk|	.	.	.	.	.	.	.	.	.	.	.	.	16g\Jk	.	16a\Jk	.	16ff\Jk|	.	16g/Jk	.	16G\Jk	.	.	.	16ff/Jk	16a\Jk	.	16ff\Jk|	.	16fff\Jk|	.
!LO:SIC:s=4GG\	!	!	!	!	!	!	!	!	!	!	!	!	!	!	!	!	!	!	!	!	!	!	!	!	!	!	!	!	!	!	!	!	!
4Re\	.	4G'\	.	.	.	.	.	.	.	.	.	.	.	.	4g\	.	4b\	.	4gg\|	.	4g/	.	4G\	.	4dd/ 4g/	.	4gg/	4b\	.	4gg\	.	4ggg\|	.
!LO:SIC:s=4GG\	!	!	!	!	!	!	!	!	!	!	!	!	!	!	!	!	!	!	!	!	!	!	!	!	!	!	!	!	!	!	!	!	!
4Re\	.	4GG'/	.	.	.	.	.	.	.	.	.	.	.	.	4d/ 4G/	.	4b\	.	4gg\|	.	4g/	.	4GG/	.	4dd/ 4g/	.	4gg/	4b\	.	4gg\	.	4ggg\|	.
=16	=16	=16	=16	=16	=16	=16	=16	=16	=16	=16	=16	=16	=16	=16	=16	=16	=16	=16	=16	=16	=16	=16	=16	=16	=16	=16	=16	=16	=16	=16	=16	=16	=16
*	*	*	*	*	*	*	*	*	*	*	*	*	*	*	*	*	*	*	*	*	*	*	*	*	*^	*	*	*	*	*	*	*	*
!LO:SIC:s=4C/	!	!	!	!	!	!	!	!	!	!	!	!	!	!	!	!	!	!	!	!	!	!LO:DY:a	!	!	!	!	!	!	!	!	!	!	!	!
4Re/	.	4C/	.	1r;	.	.	1r;	.	1r;	.	.	1r;	.	.	4e/ 4G/	.	4cc\	.	4cc\	.	4cc/ 4c/	ff	4C/	.	4cc/	4cc\	.	4cc/	4cc\	.	4cc\	.	4ccc\	.
8.r	.	8.r	.	.	.	.	.	.	.	.	.	.	.	.	8.r	.	8.r	.	8.r	.	8.r	.	8.r	.	8.r	4ryy	.	8.r	4ryy	.	8.r	.	8.r	.
!LO:SIC:s=16C/	!	!	!	!	!	!	!	!	!	!	!	!	!	!	!	!	!	!	!	!	!	!	!	!	!	!	!	!	!	!	!	!	!	!
16Re/	.	16C/	.	.	.	.	.	.	.	.	.	.	.	.	16g\ 16c\	.	16cc/ 16e/	.	16cc/ 16e/	.	16g/ 16e/	.	16G\ 16C\	.	16cc/ 16e/	.	.	16gg\ 16cc\	.	.	16ee\	.	16ccc\	.
!LO:SIC:s=2C;/	!	!	!	!	!	!	!	!	!	!	!	!	!	!	!	!	!	!	!	!	!	!	!	!	!	!	!	!	!	!	!	!	!	!
2Re/	.	2C;/	.	.	.	.	.	.	.	.	.	.	.	.	2g\ 2c;\	.	2cc/ 2e;/	.	2cc/ 2e;/	.	2g/ 2e/;	.	2G\ 2C;\	.	2cc/ 2e;/	2ryy	.	2gg\ 2cc;\	2ryy	.	2ee;\	.	2ccc;\	.
*	*	*	*	*	*	*	*	*	*	*	*	*	*	*	*	*	*	*	*	*	*	*	*	*	*v	*v	*	*	*	*	*	*	*	*
*	*	*	*	*	*	*	*	*	*	*	*	*	*	*	*	*	*	*	*	*	*	*	*	*	*	*	*v	*v	*	*	*	*	*
==	==	==	==	==	==	==	==	==	==	==	==	==	==	==	==	==	==	==	==	==	==	==	==	==	==	==	==	==	==	==	==	==
*-	*-	*-	*-	*-	*-	*-	*-	*-	*-	*-	*-	*-	*-	*-	*-	*-	*-	*-	*-	*-	*-	*-	*-	*-	*-	*-	*-	*-	*-	*-	*-	*-
!!!system-decoration: [(s1,s2,s3,s4,s5,s6[(s7,s8)]s9[(s10,s11,s12,s13)]s14,s15)]
!!!RDF**kern: > = above
!!!RDF**kern: < = below
!!!RDF**kern: | = vertical stroke
!!!EED: Leszek Kubiak
!!!EEV: 2021-04-26
!!!ENC: Krzysztof Stępień
!!!END: 2021-04-09
